src/assets/icons/_bloom.svg

<svg xmlns="http://www.w3.org/2000/svg" width="128" height="128" viewBox="0 0 128 128">
  <g fill="none" fill-rule="evenodd">
    <path stroke="#000" stroke-width="7" d="M67.2645076,14.5195467 C65.399923,13.6180778 63.346466,13.5577232 61.533788,14.1888819 C59.7211099,14.8200406 58.1492108,16.1427126 57.2477419,18.0072972 L51.5496914,29.7930584 L39.6089903,24.4272777 C38.0664171,23.7340932 36.334844,23.5826002 34.6953357,23.9973887 C32.6875279,24.5053553 31.0756934,25.7790577 30.0928024,27.4277203 C29.1099114,29.0763829 28.7559641,31.1000058 29.2639307,33.1078135 L32.4747121,45.7988665 L19.878547,49.3637748 C18.2512969,49.8243116 16.8274571,50.821295 15.8381418,52.192897 C14.6265865,53.872616 14.2105697,55.8843959 14.5173714,57.7791348 C14.8241732,59.6738738 15.8537935,61.4515719 17.5335124,62.6631271 L28.1507653,70.3211873 L20.7930219,81.1487243 C19.8425034,82.5474922 19.3926274,84.2264523 19.5164167,85.9130801 C19.668014,87.9785922 20.6424738,89.7871154 22.0954123,91.0413613 C23.5483508,92.2956072 25.479768,92.9955758 27.5452801,92.8439785 L40.6010738,91.8857543 L41.9245221,104.909595 C42.0954932,106.592095 42.830083,108.167428 44.0090545,109.379889 C45.4528704,110.864719 47.3618463,111.623757 49.2810755,111.650634 C51.2003047,111.677512 53.1297872,110.972228 54.6146163,109.528412 L64,100.402267 L73.3853837,109.528412 C74.5978453,110.707383 76.1731781,111.441973 77.855678,111.612944 C79.9161349,111.822322 81.8663958,111.176714 83.353887,109.963646 C84.8413782,108.750578 85.8660998,106.970052 86.0754779,104.909595 L87.3989262,91.8857543 L100.45472,92.8439785 C102.141348,92.9677678 103.820308,92.5178917 105.219076,91.5673732 C106.932063,90.40333 108.01106,88.6551614 108.3708,86.7697568 C108.730539,84.8843522 108.371021,82.8617116 107.206978,81.1487243 L99.8492347,70.3211873 L110.466488,62.6631271 C111.83809,61.6738118 112.835073,60.249972 113.29561,58.6227219 C113.859602,56.6299261 113.56246,54.5971852 112.626122,52.9216454 C111.689784,51.2461055 110.114249,49.9277667 108.121453,49.3637748 L95.5252879,45.7988665 L98.7360693,33.1078135 C99.1508578,31.4683052 98.9993648,29.736732 98.3061802,28.1941588 C97.4572786,26.3050617 95.9230345,24.9388906 94.1287415,24.2572192 C92.3344486,23.5755478 90.2801068,23.5783761 88.3910097,24.4272777 L76.4503086,29.7930584 L70.7522581,18.0072972 C70.0161489,16.4847401 68.7870648,15.2556559 67.2645076,14.5195467 Z"/>
    <circle cx="64" cy="64" r="22" stroke="#000" stroke-width="4"/>
  </g>
</svg>

<svg xmlns="http://www.w3.org/2000/svg"  viewBox="0 0 128 128">
    <g fill="none" fill-rule="evenodd" stroke="#000">
        <path stroke-width="7" d="M67.265 14.52a7.477 7.477 0 00-5.731-.331 7.477 7.477 0 00-4.286 3.818L51.55 29.793l-11.941-5.366a7.5 7.5 0 00-10.345 8.68l3.21 12.692-12.595 3.565a7.5 7.5 0 00-2.345 13.3L28.15 70.32 20.793 81.15a7.5 7.5 0 006.752 11.695l13.056-.958 1.324 13.024a7.5 7.5 0 0012.69 4.618L64 100.402l9.385 9.126a7.5 7.5 0 0012.69-4.618L87.4 91.886l13.056.958a7.5 7.5 0 006.752-11.695L99.849 70.32l10.617-7.658a7.5 7.5 0 00-2.345-13.3L95.525 45.8l3.211-12.691a7.5 7.5 0 00-10.345-8.68l-11.94 5.365-5.699-11.786a7.5 7.5 0 00-3.487-3.487z"/>
        <circle cx="64" cy="64" r="22" stroke-width="4"/>
    </g>
</svg>
